img/info-tres.svg

<?xml version="1.0" encoding="UTF-8" standalone="no"?>
<svg width="64px" height="90px" viewBox="0 0 64 90" version="1.1" xmlns="http://www.w3.org/2000/svg" xmlns:xlink="http://www.w3.org/1999/xlink" xmlns:sketch="http://www.bohemiancoding.com/sketch/ns">
    <!-- Generator: Sketch 3.5.1 (25234) - http://www.bohemiancoding.com/sketch -->
    <title>info-tres</title>
    <desc>Created with Sketch.</desc>
    <defs></defs>
    <g id="Page-1" stroke="none" stroke-width="1" fill="none" fill-rule="evenodd" sketch:type="MSPage">
        <g id="info-tres" sketch:type="MSLayerGroup" fill="#2B3E50">
            <path d="M63.3,55.3 C61.9930492,52.6434218 59.5761024,50.7025403 56.7,50 C51.5,48.9 45.9,52.8 44.1,54.1 C44.0447715,54.1 44,54.1447715 44,54.2 L41.5,56.3 L41.5,48.4 L54,14 C54.5366474,12.5334332 54.464636,10.9131764 53.8,9.5 C53.0855402,8.08440476 51.8753871,6.98102986 50.4,6.4 C47.3630021,5.25956204 43.9738527,6.77576045 42.8,9.8 L31.6,34.2 L31.6,6 C31.6,2.6862915 28.9137085,0 25.6,0 C22.2862915,0 19.6,2.6862915 19.6,6 L19.6,33.6 C18.5761638,32.9693368 17.4022468,32.6240671 16.2,32.6 C13.2436632,32.5880224 10.6714521,34.620899 10,37.5 C8.03694772,36.1729013 5.50189922,36.0370143 3.40822941,37.1466593 C1.3145596,38.2563043 0.00383030019,40.4304535 -3.55271368e-15,42.8 L-3.55271368e-15,59.4 C-3.55271368e-15,72.4 2.2,78 3.8,82.1 C4.76317716,84.1022685 5.30761818,86.2800326 5.4,88.5 C5.40000003,89.3284271 6.0715729,89.9999999 6.9,89.9999999 C7.7284271,89.9999999 8.39999997,89.3284271 8.4,88.5 C8.34896338,85.8993076 7.73486711,83.3405731 6.6,81 C4.37428314,75.5340829 3.18732959,69.7010541 3.1,63.8 C4.84824408,64.8373619 6.9849185,64.9839646 8.85846448,64.1951031 C10.7320105,63.4062417 12.1203047,61.7754416 12.6,59.8 C14.5630523,61.1270987 17.0981008,61.2629857 19.1917706,60.1533407 C21.2854404,59.0436957 22.5961697,56.8695465 22.6,54.5 L22.6,6 C22.6,4.34314575 23.9431458,3 25.6,3 C27.2568542,3 28.6,4.34314575 28.6,6 L28.6,41.1 C28.6186305,41.8124292 29.1090367,42.425437 29.8,42.6 C30.4796443,42.7259042 31.163813,42.4039425 31.5,41.8 L45.6,11.2 L45.6,11.1 C46.2034601,9.60370404 47.8822788,8.85265356 49.4,9.4 C50.1376131,9.64048978 50.7458762,10.1703234 51.0852741,10.8679747 C51.4246721,11.5656261 51.4660799,12.3712271 51.2,13.1 L38.5,47.5 C38.4191633,47.6535417 38.384436,47.8271782 38.4,48 L38.4,58.7 L30.8,65.1 C30.1648725,65.6246705 30.0753295,66.5648725 30.6,67.2 C31.1246705,67.8351275 32.0648725,67.9246705 32.7,67.4 L45.8,56.4 C47.4,55.3 52.1,52 56,52.8 C57.6242277,53.1695917 59.0304797,54.1792086 59.9,55.6 L49.7,62.8 C49.6264463,62.8996779 49.5203003,62.9704419 49.4,63 L42.4,70.9 C42.2781601,71.0525494 42.177266,71.2207062 42.1,71.4 C41.9,71.8 38.4,82.1 38.4,88.4 C38.4,89.2284271 39.0715729,89.9 39.9,89.9 C40.7284271,89.9 41.4,89.2284271 41.4,88.4 C41.4,83.1 44.3,74.3 44.9,72.6 L51.5,65 L62.8,57.1 C63.1304678,56.9532444 63.3779848,56.6663862 63.4747617,56.3179894 C63.5715386,55.9695925 63.5074323,55.5961723 63.3,55.3 L63.3,55.3 Z M9.8,58.2 C9.76656158,60.0000639 8.33950813,61.4640011 6.54088319,61.5433522 C4.74225824,61.6227033 3.19182914,60.2901257 3,58.5 L3,42.8 C3,40.9222319 4.52223185,39.4 6.4,39.4 C8.27776815,39.4 9.8,40.9222319 9.8,42.8 L9.8,58.2 L9.8,58.2 Z M19.7,54.4 C19.7,56.2777681 18.1777681,57.8 16.3,57.8 C14.4222319,57.8 12.9,56.2777681 12.9,54.4 L12.9,39 C12.9,37.1222319 14.4222319,35.6 16.3,35.6 C18.1777681,35.6 19.7,37.1222319 19.7,39 L19.7,54.4 L19.7,54.4 Z" id="Shape" sketch:type="MSShapeGroup"></path>
        </g>
    </g>
</svg>

<svg width="64" height="90" viewBox="0 0 64 90" xmlns="http://www.w3.org/2000/svg"><title>info-tres</title><path d="M63.3 55.3a10 10 0 0 0-6.6-5.3c-5.2-1.1-10.8 2.8-12.6 4.1a.1.1 0 0 0-.1.1l-2.5 2.1v-7.9L54 14a5.85 5.85 0 0 0-.2-4.5 6.46 6.46 0 0 0-3.4-3.1 5.92 5.92 0 0 0-7.6 3.4L31.6 34.2V6a6 6 0 1 0-12 0v27.6a6.74 6.74 0 0 0-3.4-1 6.34 6.34 0 0 0-6.2 4.9 6.41 6.41 0 0 0-10 5.3v16.6c0 13 2.2 18.6 3.8 22.7a16.33 16.33 0 0 1 1.6 6.4 1.5 1.5 0 0 0 3 0A18 18 0 0 0 6.6 81a47.47 47.47 0 0 1-3.5-17.2 6.41 6.41 0 0 0 9.5-4 6.41 6.41 0 0 0 10-5.3V6a3 3 0 0 1 6 0v35.1a1.59 1.59 0 0 0 1.2 1.5 1.61 1.61 0 0 0 1.7-.8l14.1-30.6v-.1a3 3 0 0 1 3.8-1.7 2.86 2.86 0 0 1 1.8 3.7L38.5 47.5a.9.9 0 0 0-.1.5v10.7l-7.6 6.4a1.492 1.492 0 1 0 1.9 2.3l13.1-11c1.6-1.1 6.3-4.4 10.2-3.6a6.18 6.18 0 0 1 3.9 2.8l-10.2 7.2a.53.53 0 0 1-.3.2l-7 7.9a2.19 2.19 0 0 0-.3.5c-.2.4-3.7 10.7-3.7 17a1.5 1.5 0 0 0 3 0c0-5.3 2.9-14.1 3.5-15.8l6.6-7.6 11.3-7.9a1.21 1.21 0 0 0 .5-1.8zM9.8 58.2a3.41 3.41 0 0 1-6.8.3V42.8a3.4 3.4 0 0 1 6.8 0v15.4zm9.9-3.8a3.4 3.4 0 0 1-6.8 0V39a3.4 3.4 0 0 1 6.8 0v15.4z" fill="#2B3E50" fill-rule="evenodd"/></svg>
